X:5903
T:Gan Ainm
R:Reel
S:
H:
N:
D:
Z:Adrian Scahill
M:4/4
L:1/8
K:G
G,2 B,D GBdB|c2ec dBAB|GEDE GABG|AcBA GEDB,|\
G,2 B,D GBdB|cdef gfga|bgag edBA|1 GEDE GEDB,:|2 GEDE GABc|\
dgg2 dgeg|dggf gabg|eaag abag|eaag edBc|\
dgg2 dgbg|agef g3a|bgag edBA|1 GEDE GABc:|2 GEDE GEDB,||


